X:228
T:Elizabeth Adair 
C:Joe Buchanan's Scottish Tome - Page 292.2
I:292 2
Z:Carl Allison
R:Jig
L:1/8
M:6/8
K:C
G | G2 E c2 B | A2 F d2 c | Bcd GAB | c2 e g3 |
G2 E c2 B | A2 F d2 c | Bcd GAB | c3 c2 :|
f | e2 f gfe | fef d2 f | ege cde | ecA G2 e |
e2 f gfe | faf d2 c | Bcd GAB | c3 c2 f | 
e2 f gfe | fef d2 f | ege cde | dBG G2 f | 
efg fga | gfe d2 c | Bcd GAB | c3 c3 |]

